; generated by PrusaSlicer 2.5.0+win64 on 2022-12-28 at 20:39:33 UTC

; 

; external perimeters extrusion width = 0.45mm
; perimeters extrusion width = 0.45mm
; infill extrusion width = 0.45mm
; solid infill extrusion width = 0.45mm
; top infill extrusion width = 0.40mm
; first layer extrusion width = 0.42mm

M107
M190 S90 ; set bed temperature and wait for it to be reached
M104 S245 ; set temperature
;TYPE:Custom
G28 ; home all axes
G1 Z5 F5000 ; lift nozzle
M109 S245 ; set temperature and wait for it to be reached
G21 ; set units to millimeters
G90 ; use absolute coordinates
M82 ; use absolute distances for extrusion
G92 E0
M107
;LAYER_CHANGE
;Z:0.2
;HEIGHT:0.2
G1 Z.2 F9000
G1 E-2 F2400
G92 E0
G1 X78.395 Y32.95 F9000
G1 E2 F2400
M204 S500
;TYPE:Skirt/Brim
;WIDTH:0.42
G1 F1200
G1 X79.536 Y31.012 E2.07054
G1 X81.279 Y29.59 E2.14108
G1 X84.375 Y28.788 E2.24134
G1 X215.625 Y28.788 E6.35659
G1 X217.84 Y29.185 E6.42714
G1 X219.778 Y30.326 E6.49768
G1 X221.2 Y32.069 E6.56822
G1 X222.002 Y35.165 E6.66848
G1 X222.002 Y164.835 E10.73419
G1 X221.605 Y167.05 E10.80473
G1 X220.464 Y168.988 E10.87527
G1 X218.721 Y170.41 E10.94582
G1 X215.625 Y171.212 E11.04608
G1 X84.375 Y171.212 E15.16133
G1 X82.16 Y170.815 E15.23187
G1 X80.222 Y169.674 E15.30241
G1 X78.8 Y167.931 E15.37295
G1 X77.998 Y164.835 E15.47321
G1 X77.998 Y35.165 E19.53892
G1 X78.384 Y33.01 E19.60758
G1 E17.60758 F2400
G92 E0
G1 X215.038 Y35.752 F9000
G1 E2 F2400
;TYPE:Perimeter
;WIDTH:0.419999
G1 F1200
G1 X215.038 Y164.248 E6.02889
G1 X84.962 Y164.248 E10.10732
G1 X84.962 Y35.752 E14.13621
G1 X214.978 Y35.752 E18.21276
G1 X215.415 Y35.375 F9000
;TYPE:External perimeter
G1 F1200
G1 X215.415 Y164.625 E22.2653
G1 X84.585 Y164.625 E26.36737
G1 X84.585 Y35.375 E30.41991
G1 X215.355 Y35.375 E34.5201
G1 X215.311 Y35.761 F9000
G1 X214.162 Y35.865
;TYPE:Solid infill
;WIDTH:0.420133
G1 F1200
G1 X214.755 Y36.458 E34.5464
G1 X214.755 Y36.992 E34.56313
G1 X213.798 Y36.035 E34.60557
G1 X213.265 Y36.035 E34.6223
G1 X214.755 Y37.525 E34.6884
G1 X214.755 Y38.058 E34.70513
G1 X212.732 Y36.035 E34.79489
G1 X212.198 Y36.035 E34.81162
G1 X214.755 Y38.592 E34.92504
G1 X214.755 Y39.125 E34.94177
G1 X211.665 Y36.035 E35.07886
G1 X211.131 Y36.035 E35.09559
G1 X214.755 Y39.659 E35.25634
G1 X214.755 Y40.192 E35.27307
G1 X210.598 Y36.035 E35.45748
G1 X210.064 Y36.035 E35.47422
G1 X214.755 Y40.726 E35.68229
G1 X214.755 Y41.259 E35.69902
G1 X209.531 Y36.035 E35.93076
G1 X208.997 Y36.035 E35.94749
G1 X214.755 Y41.793 E36.20289
G1 X214.755 Y42.326 E36.21962
G1 X208.464 Y36.035 E36.49869
G1 X207.93 Y36.035 E36.51542
G1 X214.755 Y42.86 E36.81814
G1 X214.755 Y43.393 E36.83488
G1 X207.397 Y36.035 E37.16127
G1 X206.864 Y36.035 E37.178
G1 X214.755 Y43.926 E37.52805
G1 X214.755 Y44.46 E37.54478
G1 X206.33 Y36.035 E37.9185
G1 X205.797 Y36.035 E37.93523
G1 X214.755 Y44.993 E38.3326
G1 X214.755 Y45.527 E38.34934
G1 X205.263 Y36.035 E38.77038
G1 X204.73 Y36.035 E38.78711
G1 X214.755 Y46.06 E39.23181
G1 X214.755 Y46.594 E39.24854
G1 X204.196 Y36.035 E39.71691
G1 X203.663 Y36.035 E39.73364
G1 X214.755 Y47.127 E40.22567
G1 X214.755 Y47.661 E40.2424
G1 X203.129 Y36.035 E40.75809
G1 X202.596 Y36.035 E40.77483
G1 X214.755 Y48.194 E41.31418
G1 X214.755 Y48.728 E41.33091
G1 X202.062 Y36.035 E41.89393
G1 X201.529 Y36.035 E41.91066
G1 X214.755 Y49.261 E42.49734
G1 X214.755 Y49.795 E42.51407
G1 X200.995 Y36.035 E43.12442
G1 X200.462 Y36.035 E43.14115
G1 X214.755 Y50.328 E43.77515
G1 X214.755 Y50.861 E43.79189
G1 X199.929 Y36.035 E44.44956
G1 X199.395 Y36.035 E44.46629
G1 X214.755 Y51.395 E45.14762
G1 X214.755 Y51.928 E45.16435
G1 X198.862 Y36.035 E45.86935
G1 X198.328 Y36.035 E45.88608
G1 X214.755 Y52.462 E46.61474
G1 X214.755 Y52.995 E46.63147
G1 X197.795 Y36.035 E47.38379
G1 X197.261 Y36.035 E47.40052
G1 X214.755 Y53.529 E48.1765
G1 X214.755 Y54.062 E48.19323
G1 X196.728 Y36.035 E48.99288
G1 X196.194 Y36.035 E49.00961
G1 X214.755 Y54.596 E49.83292
G1 X214.755 Y55.129 E49.84965
G1 X195.661 Y36.035 E50.69663
G1 X195.127 Y36.035 E50.71336
G1 X214.755 Y55.663 E51.58399
G1 X214.755 Y56.196 E51.60072
G1 X194.594 Y36.035 E52.49502
G1 X194.06 Y36.035 E52.51175
G1 X214.755 Y56.73 E53.42971
G1 X214.755 Y57.263 E53.44645
G1 X193.527 Y36.035 E54.38807
G1 X192.994 Y36.035 E54.4048
G1 X214.755 Y57.796 E55.37009
G1 X214.755 Y58.33 E55.38682
G1 X192.46 Y36.035 E56.37577
G1 X191.927 Y36.035 E56.3925
G1 X214.755 Y58.863 E57.40511
G1 X214.755 Y59.397 E57.42184
G1 X191.393 Y36.035 E58.45812
G1 X190.86 Y36.035 E58.47485
G1 X214.755 Y59.93 E59.53479
G1 X214.755 Y60.464 E59.55152
G1 X190.326 Y36.035 E60.63512
G1 X189.793 Y36.035 E60.65185
G1 X214.755 Y60.997 E61.75912
G1 X214.755 Y61.531 E61.77585
G1 X189.259 Y36.035 E62.90677
G1 X188.726 Y36.035 E62.92351
G1 X214.755 Y62.064 E64.07809
G1 X214.755 Y62.598 E64.09483
G1 X188.192 Y36.035 E65.27308
G1 X187.659 Y36.035 E65.28981
G1 X214.755 Y63.131 E66.49173
G1 X214.755 Y63.665 E66.50846
G1 X187.125 Y36.035 E67.73404
G1 X186.592 Y36.035 E67.75077
G1 X214.755 Y64.198 E69.00001
G1 X214.755 Y64.731 E69.01674
G1 X186.059 Y36.035 E70.28964
G1 X185.525 Y36.035 E70.30638
G1 X214.755 Y65.265 E71.60294
G1 X214.755 Y65.798 E71.61967
G1 X184.992 Y36.035 E72.9399
G1 X184.458 Y36.035 E72.95663
G1 X214.755 Y66.332 E74.30053
G1 X214.755 Y66.865 E74.31726
G1 X183.925 Y36.035 E75.68481
G1 X183.391 Y36.035 E75.70154
G1 X214.755 Y67.399 E77.09276
G1 X214.755 Y67.932 E77.10949
G1 X182.858 Y36.035 E78.52437
G1 X182.324 Y36.035 E78.54111
G1 X214.755 Y68.466 E79.97965
G1 X214.755 Y68.999 E79.99638
G1 X181.791 Y36.035 E81.45859
G1 X181.257 Y36.035 E81.47532
G1 X214.755 Y69.533 E82.96119
G1 X214.755 Y70.066 E82.97792
G1 X180.724 Y36.035 E84.48745
G1 X180.191 Y36.035 E84.50419
G1 X214.755 Y70.599 E86.03738
G1 X214.755 Y71.133 E86.05411
G1 X179.657 Y36.035 E87.61097
G1 X179.124 Y36.035 E87.6277
G1 X214.755 Y71.666 E89.20822
G1 X214.755 Y72.2 E89.22495
G1 X178.59 Y36.035 E90.82914
G1 X178.057 Y36.035 E90.84587
G1 X214.755 Y72.733 E92.47372
G1 X214.755 Y73.267 E92.49045
G1 X177.523 Y36.035 E94.14196
G1 X176.99 Y36.035 E94.15869
G1 X214.755 Y73.8 E95.83386
G1 X214.755 Y74.334 E95.85059
G1 X176.456 Y36.035 E97.54943
G1 X175.923 Y36.035 E97.56616
G1 X214.755 Y74.867 E99.28866
G1 X214.755 Y75.401 E99.30539
G1 X175.389 Y36.035 E101.05155
G1 X174.856 Y36.035 E101.06828
G1 X214.755 Y75.934 E102.83811
G1 X214.755 Y76.468 E102.85484
G1 X174.322 Y36.035 E104.64832
G1 X173.789 Y36.035 E104.66506
G1 X214.755 Y77.001 E106.48221
G1 X214.755 Y77.534 E106.49894
G1 X173.256 Y36.035 E108.33975
G1 X172.722 Y36.035 E108.35648
G1 X214.755 Y78.068 E110.22096
G1 X214.755 Y78.601 E110.23769
G1 X172.189 Y36.035 E112.12583
G1 X171.655 Y36.035 E112.14256
G1 X214.755 Y79.135 E114.05436
G1 X214.755 Y79.668 E114.07109
G1 X171.122 Y36.035 E116.00655
G1 X170.588 Y36.035 E116.02329
G1 X214.755 Y80.202 E117.98241
G1 X214.755 Y80.735 E117.99915
G1 X170.055 Y36.035 E119.98193
G1 X169.521 Y36.035 E119.99867
G1 X214.755 Y81.269 E122.00512
G1 X214.755 Y81.802 E122.02185
G1 X168.988 Y36.035 E124.05197
G1 X168.454 Y36.035 E124.0687
G1 X214.755 Y82.336 E126.12248
G1 X214.755 Y82.869 E126.13921
G1 X167.921 Y36.035 E128.21665
G1 X167.387 Y36.035 E128.23338
G1 X214.755 Y83.403 E130.33448
G1 X214.755 Y83.936 E130.35122
G1 X166.854 Y36.035 E132.47598
G1 X166.321 Y36.035 E132.49271
G1 X214.755 Y84.469 E134.64114
G1 X214.755 Y85.003 E134.65788
G1 X165.787 Y36.035 E136.82997
G1 X165.254 Y36.035 E136.8467
G1 X214.755 Y85.536 E139.04246
G1 X214.755 Y86.07 E139.05919
G1 X164.72 Y36.035 E141.27861
G1 X164.187 Y36.035 E141.29534
G1 X214.755 Y86.603 E143.53842
G1 X214.755 Y87.137 E143.55515
G1 X163.653 Y36.035 E145.82189
G1 X163.12 Y36.035 E145.83863
G1 X214.755 Y87.67 E148.12903
G1 X214.755 Y88.204 E148.14576
G1 X162.586 Y36.035 E150.45983
G1 X162.053 Y36.035 E150.47657
G1 X214.755 Y88.737 E152.8143
G1 X214.755 Y89.271 E152.83103
G1 X161.519 Y36.035 E155.19243
G1 X160.986 Y36.035 E155.20916
G1 X214.755 Y89.804 E157.59422
G1 X214.755 Y90.337 E157.61095
G1 X160.453 Y36.035 E160.01967
G1 X159.919 Y36.035 E160.0364
G1 X214.755 Y90.871 E162.46878
G1 X214.755 Y91.404 E162.48552
G1 X159.386 Y36.035 E164.94156
G1 X158.852 Y36.035 E164.95829
G1 X214.755 Y91.938 E167.438
G1 X214.755 Y92.471 E167.45474
G1 X158.319 Y36.035 E169.95811
G1 X157.785 Y36.035 E169.97484
G1 X214.755 Y93.005 E172.50188
G1 X214.755 Y93.538 E172.51861
G1 X157.252 Y36.035 E175.06931
G1 X156.718 Y36.035 E175.08604
G1 X214.755 Y94.072 E177.6604
G1 X214.755 Y94.605 E177.67713
G1 X156.185 Y36.035 E180.27515
G1 X155.651 Y36.035 E180.29189
G1 X214.755 Y95.139 E182.91357
G1 X214.755 Y95.672 E182.93031
G1 X155.118 Y36.035 E185.57565
G1 X154.584 Y36.035 E185.59239
G1 X214.755 Y96.206 E188.2614
G1 X214.755 Y96.739 E188.27813
G1 X154.051 Y36.035 E190.97081
G1 X153.518 Y36.035 E190.98754
G1 X214.755 Y97.272 E193.70388
G1 X214.755 Y97.806 E193.72061
G1 X152.984 Y36.035 E196.46061
G1 X152.451 Y36.035 E196.47734
G1 X214.755 Y98.339 E199.24101
G1 X214.755 Y98.873 E199.25774
G1 X151.917 Y36.035 E202.04506
G1 X151.384 Y36.035 E202.0618
G1 X214.755 Y99.406 E204.87279
G1 X214.755 Y99.94 E204.88952
G1 X150.85 Y36.035 E207.72417
G1 X150.317 Y36.035 E207.7409
G1 X214.755 Y100.473 E210.59922
G1 X214.755 Y101.007 E210.61595
G1 X149.783 Y36.035 E213.49793
G1 X149.25 Y36.035 E213.51466
G1 X214.755 Y101.54 E216.4203
G1 X214.755 Y102.074 E216.43703
G1 X148.716 Y36.035 E219.36634
G1 X148.183 Y36.035 E219.38307
G1 X214.755 Y102.607 E222.33604
G1 X214.755 Y103.141 E222.35277
G1 X147.649 Y36.035 E225.3294
G1 X147.116 Y36.035 E225.34613
G1 X214.755 Y103.674 E228.34642
G1 X214.755 Y104.207 E228.36315
G1 X146.583 Y36.035 E231.38711
G1 X146.049 Y36.035 E231.40384
G1 X214.755 Y104.741 E234.45146
G1 X214.755 Y105.274 E234.46819
G1 X145.516 Y36.035 E237.53947
G1 X144.982 Y36.035 E237.5562
G1 X214.755 Y105.808 E240.65115
G1 X214.755 Y106.341 E240.66788
G1 X144.449 Y36.035 E243.78649
G1 X143.915 Y36.035 E243.80322
G1 X214.755 Y106.875 E246.94549
G1 X214.755 Y107.408 E246.96222
G1 X143.382 Y36.035 E250.12815
G1 X142.848 Y36.035 E250.14489
G1 X214.755 Y107.942 E253.33448
G1 X214.755 Y108.475 E253.35121
G1 X142.315 Y36.035 E256.56447
G1 X141.781 Y36.035 E256.5812
G1 X214.755 Y109.009 E259.81812
G1 X214.755 Y109.542 E259.83486
G1 X141.248 Y36.035 E263.09544
G1 X140.714 Y36.035 E263.11217
G1 X214.755 Y110.076 E266.39642
G1 X214.755 Y110.609 E266.41315
G1 X140.181 Y36.035 E269.72106
G1 X139.648 Y36.035 E269.73779
G1 X214.755 Y111.142 E273.06937
G1 X214.755 Y111.676 E273.0861
G1 X139.114 Y36.035 E276.44133
G1 X138.581 Y36.035 E276.45807
G1 X214.755 Y112.209 E279.83696
G1 X214.755 Y112.743 E279.8537
G1 X138.047 Y36.035 E283.25626
G1 X137.514 Y36.035 E283.27299
G1 X214.755 Y113.276 E286.69921
G1 X214.755 Y113.81 E286.71594
G1 X136.98 Y36.035 E290.16583
G1 X136.447 Y36.035 E290.18256
G1 X214.755 Y114.343 E293.65611
G1 X214.755 Y114.877 E293.67285
G1 X135.913 Y36.035 E297.17006
G1 X135.38 Y36.035 E297.18679
G1 X214.755 Y115.41 E300.70767
G1 X214.755 Y115.944 E300.7244
G1 X134.846 Y36.035 E304.26894
G1 X134.313 Y36.035 E304.28567
G1 X214.755 Y116.477 E307.85387
G1 X214.755 Y117.01 E307.8706
G1 X133.78 Y36.035 E311.46247
G1 X133.246 Y36.035 E311.4792
G1 X214.755 Y117.544 E315.09472
G1 X214.755 Y118.077 E315.11146
G1 X132.713 Y36.035 E318.75065
G1 X132.179 Y36.035 E318.76738
G1 X214.755 Y118.611 E322.43023
G1 X214.755 Y119.144 E322.44696
G1 X131.646 Y36.035 E326.13348
G1 X131.112 Y36.035 E326.15021
G1 X214.755 Y119.678 E329.86039
G1 X214.755 Y120.211 E329.87712
G1 X130.579 Y36.035 E333.61096
G1 X130.045 Y36.035 E333.6277
G1 X214.755 Y120.745 E337.3852
G1 X214.755 Y121.278 E337.40193
G1 X129.512 Y36.035 E341.1831
G1 X128.978 Y36.035 E341.19983
G1 X214.755 Y121.812 E345.00466
G1 X214.755 Y122.345 E345.02139
G1 X128.445 Y36.035 E348.84989
G1 X127.911 Y36.035 E348.86662
G1 X214.755 Y122.879 E352.71877
G1 X214.755 Y123.412 E352.7355
G1 X127.378 Y36.035 E356.61132
G1 X126.845 Y36.035 E356.62806
G1 X214.755 Y123.945 E360.52754
G1 X214.755 Y124.479 E360.54427
G1 X126.311 Y36.035 E364.46741
G1 X125.778 Y36.035 E364.48415
G1 X214.755 Y125.012 E368.43095
G1 X214.755 Y125.546 E368.44768
G1 X125.244 Y36.035 E372.41815
G1 X124.711 Y36.035 E372.43489
G1 X214.755 Y126.079 E376.42902
G1 X214.755 Y126.613 E376.44575
G1 X124.177 Y36.035 E380.46355
G1 X123.644 Y36.035 E380.48028
G1 X214.755 Y127.146 E384.52174
G1 X214.755 Y127.68 E384.53847
G1 X123.11 Y36.035 E388.60359
G1 X122.577 Y36.035 E388.62032
G1 X214.755 Y128.213 E392.70911
G1 X214.755 Y128.747 E392.72584
G1 X122.043 Y36.035 E396.83829
G1 X121.51 Y36.035 E396.85502
G1 X214.755 Y129.28 E400.99113
G1 X214.755 Y129.814 E401.00786
G1 X120.976 Y36.035 E405.16763
G1 X120.443 Y36.035 E405.18437
G1 X214.755 Y130.347 E409.3678
G1 X214.755 Y130.88 E409.38453
G1 X119.91 Y36.035 E413.59163
G1 X119.376 Y36.035 E413.60836
G1 X214.755 Y131.414 E417.83913
G1 X214.755 Y131.947 E417.85586
G1 X118.843 Y36.035 E422.11028
G1 X118.309 Y36.035 E422.12701
G1 X214.755 Y132.481 E426.4051
G1 X214.755 Y133.014 E426.42183
G1 X117.776 Y36.035 E430.72358
G1 X117.242 Y36.035 E430.74032
G1 X214.755 Y133.548 E435.06573
G1 X214.755 Y134.081 E435.08246
G1 X116.709 Y36.035 E439.43154
G1 X116.175 Y36.035 E439.44827
G1 X214.755 Y134.615 E443.82101
G1 X214.755 Y135.148 E443.83774
G1 X115.642 Y36.035 E448.23414
G1 X115.108 Y36.035 E448.25087
G1 X214.755 Y135.682 E452.67094
G1 X214.755 Y136.215 E452.68767
G1 X114.575 Y36.035 E457.1314
G1 X114.042 Y36.035 E457.14813
G1 X214.755 Y136.748 E461.61552
G1 X214.755 Y137.282 E461.63225
G1 X113.508 Y36.035 E466.1233
G1 X112.975 Y36.035 E466.14004
G1 X214.755 Y137.815 E470.65475
G1 X214.755 Y138.349 E470.67148
G1 X112.441 Y36.035 E475.20986
G1 X111.908 Y36.035 E475.22659
G1 X214.755 Y138.882 E479.78864
G1 X214.755 Y139.416 E479.80537
G1 X111.374 Y36.035 E484.39107
G1 X110.841 Y36.035 E484.40781
G1 X214.755 Y139.949 E489.01717
G1 X214.755 Y140.483 E489.0339
G1 X110.307 Y36.035 E493.66693
G1 X109.774 Y36.035 E493.68367
G1 X214.755 Y141.016 E498.34036
G1 X214.755 Y141.55 E498.35709
G1 X109.24 Y36.035 E503.03745
G1 X108.707 Y36.035 E503.05418
G1 X214.755 Y142.083 E507.7582
G1 X214.755 Y142.617 E507.77493
G1 X108.173 Y36.035 E512.50261
G1 X107.64 Y36.035 E512.51934
G1 X214.755 Y143.15 E517.27069
G1 X214.755 Y143.683 E517.28742
G1 X107.107 Y36.035 E522.06243
G1 X106.573 Y36.035 E522.07916
G1 X214.755 Y144.217 E526.87783
G1 X214.755 Y144.75 E526.89456
G1 X106.04 Y36.035 E531.7169
G1 X105.506 Y36.035 E531.73363
G1 X214.755 Y145.284 E536.57962
G1 X214.755 Y145.817 E536.59636
G1 X104.973 Y36.035 E541.46601
G1 X104.439 Y36.035 E541.48275
G1 X214.755 Y146.351 E546.37607
G1 X214.755 Y146.884 E546.3928
G1 X103.906 Y36.035 E551.30979
G1 X103.372 Y36.035 E551.32652
G1 X214.755 Y147.418 E556.26716
G1 X214.755 Y147.951 E556.2839
G1 X102.839 Y36.035 E561.24821
G1 X102.305 Y36.035 E561.26494
G1 X214.755 Y148.485 E566.25291
G1 X214.755 Y149.018 E566.26964
G1 X101.772 Y36.035 E571.28128
G1 X101.238 Y36.035 E571.29801
G1 X214.755 Y149.552 E576.33331
G1 X214.755 Y150.085 E576.35004
G1 X100.705 Y36.035 E581.40901
G1 X100.172 Y36.035 E581.42574
G1 X214.755 Y150.618 E586.50836
G1 X214.755 Y151.152 E586.52509
G1 X99.638 Y36.035 E591.63138
G1 X99.105 Y36.035 E591.64811
G1 X214.755 Y151.685 E596.77806
G1 X214.755 Y152.219 E596.7948
G1 X98.571 Y36.035 E601.94841
G1 X98.038 Y36.035 E601.96514
G1 X214.755 Y152.752 E607.14242
G1 X214.755 Y153.286 E607.15915
G1 X97.504 Y36.035 E612.36009
G1 X96.971 Y36.035 E612.37682
G1 X214.755 Y153.819 E617.60142
G1 X214.755 Y154.353 E617.61815
G1 X96.437 Y36.035 E622.86642
G1 X95.904 Y36.035 E622.88315
G1 X214.755 Y154.886 E628.15508
G1 X214.755 Y155.42 E628.17181
G1 X95.37 Y36.035 E633.4674
G1 X94.837 Y36.035 E633.48413
G1 X214.755 Y155.953 E638.80339
G1 X214.755 Y156.487 E638.82012
G1 X94.304 Y36.035 E644.16304
G1 X93.77 Y36.035 E644.17977
G1 X214.755 Y157.02 E649.54635
G1 X214.755 Y157.553 E649.56308
G1 X93.237 Y36.035 E654.95332
G1 X92.703 Y36.035 E654.97005
G1 X214.755 Y158.087 E660.38396
G1 X214.755 Y158.62 E660.40069
G1 X92.17 Y36.035 E665.83826
G1 X91.636 Y36.035 E665.85499
