; generated by PrusaSlicer 2.5.0+win64 on 2022-12-28 at 20:46:12 UTC

; 

; external perimeters extrusion width = 0.45mm
; perimeters extrusion width = 0.45mm
; infill extrusion width = 0.45mm
; solid infill extrusion width = 0.45mm
; top infill extrusion width = 0.40mm
; first layer extrusion width = 0.42mm

M107
M190 S90 ; set bed temperature and wait for it to be reached
M104 S245 ; set temperature
;TYPE:Custom
G28 ; home all axes
G1 Z5 F5000 ; lift nozzle
M109 S245 ; set temperature and wait for it to be reached
G21 ; set units to millimeters
G90 ; use absolute coordinates
M82 ; use absolute distances for extrusion
G92 E0
M107
;LAYER_CHANGE
;Z:0.2
;HEIGHT:0.2
G1 Z.2 F9000
G1 E-2 F2400
G92 E0
G1 X78.395 Y32.95 F9000
G1 E2 F2400
M204 S500
;TYPE:Skirt/Brim
;WIDTH:0.42
G1 F1200
G1 X79.536 Y31.012 E2.07054
G1 X81.279 Y29.59 E2.14108
G1 X84.375 Y28.788 E2.24134
G1 X215.625 Y28.788 E6.35659
G1 X217.84 Y29.185 E6.42714
G1 X219.778 Y30.326 E6.49768
G1 X221.2 Y32.069 E6.56822
G1 X222.002 Y35.165 E6.66848
G1 X222.002 Y164.835 E10.73419
G1 X221.605 Y167.05 E10.80473
G1 X220.464 Y168.988 E10.87527
G1 X218.721 Y170.41 E10.94582
G1 X215.625 Y171.212 E11.04608
G1 X84.375 Y171.212 E15.16133
G1 X82.16 Y170.815 E15.23187
G1 X80.222 Y169.674 E15.30241
G1 X78.8 Y167.931 E15.37295
G1 X77.998 Y164.835 E15.47321
G1 X77.998 Y35.165 E19.53892
G1 X78.384 Y33.01 E19.60758
G1 E17.60758 F2400
G92 E0
G1 X214.256 Y51.697 F9000
G1 E2 F2400
;TYPE:Perimeter
;WIDTH:0.522344
G1 F1200
G1 X214.509 Y51.429 E2.0147
G1 X214.512 Y51.356 E2.01759
;WIDTH:0.519381
G1 X214.512 Y39.314 E2.4947
G1 X214.374 Y39.087 E2.5052
;WIDTH:0.46969
G1 X214.236 Y38.861 E2.5146
;WIDTH:0.419999
G1 X213.896 Y38.748 E2.52582
G1 X123.756 Y38.756 E5.35211
G1 X123.463 Y38.904 E5.36238
G1 X123.354 Y39.047 E5.36803
G1 X123.288 Y39.314 E5.37663
G1 X123.292 Y51.427 E5.75644
G1 X123.384 Y51.673 E5.76466
G1 X123.594 Y51.859 E5.77345
G1 X123.854 Y51.922 E5.78183
G1 X131.617 Y51.922 E6.02524
G1 X131.288 Y52.314 E6.04127
G1 X131.288 Y91.356 E7.26543
G1 X131.401 Y91.696 E7.27664
G1 X131.854 Y91.922 E7.2925
G1 X214.896 Y91.922 E9.89625
G1 X215.038 Y91.803 E9.90205
G1 X215.038 Y143.46 E11.5217
;WIDTH:0.46969
G1 X215.013 Y143.887 E11.53687
;WIDTH:0.519381
G1 X214.988 Y144.314 E11.55381
G1 X214.988 Y156.356 E12.03092
;WIDTH:0.525848
G1 X215.003 Y156.74 E12.04634
;WIDTH:0.490565
G1 X215.02 Y156.975 E12.05511
;WIDTH:0.455282
G1 X215.038 Y157.21 E12.06319
;WIDTH:0.419999
G1 X215.038 Y164.248 E12.28386
G1 X84.962 Y164.248 E16.36229
G1 X84.962 Y35.752 E20.39118
G1 X215.038 Y35.752 E24.46961
G1 X215.038 Y37.25 E24.51657
G1 X215.038 Y38.46 E24.55451
;WIDTH:0.46969
G1 X215.013 Y38.887 E24.56968
;WIDTH:0.519381
G1 X214.988 Y39.314 E24.58662
G1 X214.988 Y51.356 E25.06373
;WIDTH:0.522344
G1 X214.987 Y51.787 E25.0809
G1 X214.896 Y51.697 E25.08599
G1 X214.316 Y51.697 E25.10914
G1 E23.10914 F2400
G92 E0
G1 X84.585 Y35.375 F9000
G1 E2 F2400
;TYPE:External perimeter
;WIDTH:0.419999
G1 F1200
G1 X215.415 Y35.375 E6.10208
G1 X215.415 Y37.25 E6.16087
G1 X215.427 Y52.314 E6.63317
;WIDTH:0.39646
G1 X215.427 Y91.356 E7.78091
;WIDTH:0.399138
G1 X215.425 Y91.418 E7.78274
;WIDTH:0.419999
G1 X215.415 Y164.625 E10.07809
G1 X84.585 Y164.625 E14.18016
G1 X84.585 Y35.435 E18.23082
G1 X84.972 Y35.478 F9000
G1 E16.23082 F2400
G92 E0
G1 X214.036 Y51.436 F9000
G1 E2 F2400
;WIDTH:0.490057
G1 F1200
G1 X213.987 Y51.515 E2.00346
;WIDTH:0.525086
G1 X213.938 Y51.594 E2.00719
G1 X213.896 Y51.596 E2.00886
;WIDTH:0.52146
G1 X131.854 Y51.596 E5.27341
G1 X131.535 Y51.579 E5.28613
;WIDTH:0.48764
G1 X131.215 Y51.562 E5.29794
;WIDTH:0.45382
G1 X130.896 Y51.545 E5.30885
;WIDTH:0.419999
G1 X123.854 Y51.545 E5.52968
G1 X123.714 Y51.483 E5.53447
G1 X123.665 Y51.356 E5.53873
G1 X123.665 Y39.314 E5.91632
G1 X123.724 Y39.177 E5.92098
G1 X123.854 Y39.125 E5.92537
G1 X213.896 Y39.125 E8.7486
G1 X214.01 Y39.163 E8.75234
G1 X214.085 Y39.314 E8.75763
G1 X214.085 Y51.356 E9.13522
;WIDTH:0.455028
G1 X214.068 Y51.385 E9.13636
G1 E7.13636 F2400
G92 E0
G1 X214.896 Y91.545 F9000
G1 E2 F2400
;WIDTH:0.419999
G1 F1200
G1 X131.854 Y91.545 E4.60375
G1 X131.703 Y91.47 E4.60904
G1 X131.665 Y91.356 E4.61277
G1 X131.665 Y52.314 E5.83694
;WIDTH:0.455028
G1 X131.714 Y52.234 E5.84012
;WIDTH:0.490057
G1 X131.763 Y52.155 E5.84359
;WIDTH:0.525086
G1 X131.812 Y52.076 E5.84732
G1 X131.854 Y52.074 E5.84899
;WIDTH:0.52146
G1 X213.896 Y52.074 E9.11354
G1 X214.18 Y52.091 E9.12484
;WIDTH:0.48764
G1 X214.464 Y52.108 E9.13534
;WIDTH:0.45382
G1 X214.747 Y52.125 E9.14505
;WIDTH:0.419999
G1 X214.896 Y52.125 E9.14973
G1 X215.073 Y52.314 E9.15784
;WIDTH:0.39646
G1 X215.073 Y91.356 E10.30558
;WIDTH:0.399138
G1 X215.072 Y91.387 E10.30649
;WIDTH:0.419999
G1 X214.941 Y91.505 E10.31201
G1 E8.31201 F2400
G92 E0
G1 X203.679 Y156.748 F9000
G1 E2 F2400
;TYPE:Perimeter
G1 F1200
G1 X203.288 Y156.356 E2.01736
G1 X203.288 Y144.314 E2.39495
G1 X203.362 Y144.034 E2.40402
G1 X203.554 Y143.834 E2.41273
G1 X203.854 Y143.748 E2.42249
G1 X213.896 Y143.748 E2.73738
G1 X214.236 Y143.861 E2.7486
;WIDTH:0.46969
G1 X214.374 Y144.087 E2.758
;WIDTH:0.519381
G1 X214.512 Y144.314 E2.7685
G1 X214.512 Y156.356 E3.24561
;WIDTH:0.525848
G1 X214.506 Y156.463 E3.24991
G1 X214.416 Y156.579 E3.25578
;WIDTH:0.490565
G1 X214.326 Y156.694 E3.26122
;WIDTH:0.455282
G1 X214.236 Y156.809 E3.26623
;WIDTH:0.419999
G1 X213.896 Y156.922 E3.27745
G1 X211.071 Y156.922 E3.36605
G1 X211.462 Y157.314 E3.38341
G1 X211.462 Y161.356 E3.51017
G1 X211.413 Y161.586 E3.51753
G1 X211.309 Y161.743 E3.52344
G1 X211.131 Y161.871 E3.53034
G1 X210.896 Y161.922 E3.53785
G1 X165.854 Y161.922 E4.95014
G1 X165.587 Y161.856 E4.95874
G1 X165.401 Y161.696 E4.96643
G1 X165.311 Y161.515 E4.97278
G1 X165.288 Y161.356 E4.97779
G1 X165.288 Y157.314 E5.10456
G1 X165.353 Y157.051 E5.11304
G1 X165.532 Y156.848 E5.12152
G1 X165.794 Y156.751 E5.13028
G1 X203.619 Y156.748 E6.31627
G1 X203.854 Y156.596 F9000
;TYPE:External perimeter
;WIDTH:0.52146
G1 F1200
G1 X203.791 Y156.516 E6.32031
;WIDTH:0.48764
G1 X203.728 Y156.436 E6.32407
;WIDTH:0.45382
G1 X203.665 Y156.356 E6.32754
;WIDTH:0.419999
G1 X203.665 Y144.314 E6.70513
G1 X203.733 Y144.169 E6.71014
G1 X203.854 Y144.125 E6.71417
G1 X213.896 Y144.125 E7.02906
G1 X214.01 Y144.163 E7.0328
G1 X214.085 Y144.314 E7.03809
G1 X214.085 Y156.356 E7.41568
G1 X214.01 Y156.507 E7.42097
G1 X213.896 Y156.545 E7.42471
G1 X211.854 Y156.545 E7.48876
;WIDTH:0.45382
G1 X211.535 Y156.562 E7.49968
;WIDTH:0.48764
G1 X211.215 Y156.579 E7.51149
;WIDTH:0.52146
G1 X210.896 Y156.596 E7.52421
G1 X203.914 Y156.596 E7.80206
G1 X203.762 Y156.64 F9000
G1 E5.80206 F2400
G92 E0
G1 X210.896 Y157.074 F9000
G1 E2 F2400
G1 F1200
G1 X210.959 Y157.154 E2.00404
;WIDTH:0.48764
G1 X211.022 Y157.234 E2.0078
;WIDTH:0.45382
G1 X211.085 Y157.314 E2.01126
;WIDTH:0.419999
G1 X211.085 Y161.356 E2.13803
G1 X211.034 Y161.485 E2.14237
G1 X210.929 Y161.542 E2.14612
G1 X165.854 Y161.545 E3.55942
G1 X165.703 Y161.47 E3.56471
G1 X165.665 Y161.356 E3.56845
G1 X165.665 Y157.314 E3.69521
G1 X165.735 Y157.167 E3.70032
G1 X165.854 Y157.125 E3.70425
G1 X202.896 Y157.125 E4.8657
;WIDTH:0.45382
G1 X203.215 Y157.108 E4.87662
;WIDTH:0.48764
G1 X203.535 Y157.091 E4.88843
;WIDTH:0.52146
G1 X203.854 Y157.074 E4.90114
G1 X210.836 Y157.074 E5.179
G1 X210.988 Y157.03 F9000
G1 E3.179 F2400
G92 E0
G1 X90.308 Y115.233 F9000
G1 E2 F2400
;TYPE:Perimeter
;WIDTH:0.419999
G1 F1200
G1 X90.354 Y115.047 E2.006
G1 X90.514 Y114.861 E2.0137
G1 X90.778 Y114.753 E2.02265
G1 X90.854 Y114.748 E2.02501
G1 X141.896 Y114.748 E3.62542
G1 X142.168 Y114.818 E3.63422
G1 X142.364 Y114.995 E3.64249
G1 X142.459 Y115.253 E3.65113
G1 X142.462 Y122.356 E3.87384
G1 X142.392 Y122.629 E3.88267
G1 X142.197 Y122.836 E3.89157
G1 X141.896 Y122.922 E3.90138
G1 X90.854 Y122.922 E5.50179
G1 X90.606 Y122.865 E5.50977
G1 X90.427 Y122.728 E5.51681
G1 X90.296 Y122.454 E5.52634
G1 X90.288 Y122.356 E5.52941
G1 X90.293 Y115.291 E5.75094
G1 X90.665 Y115.314 F9000
;TYPE:External perimeter
G1 F1200
G1 X90.711 Y115.19 E5.75509
G1 X90.854 Y115.125 E5.75998
G1 X141.896 Y115.125 E7.36039
G1 X142.04 Y115.191 E7.36534
G1 X142.085 Y115.314 E7.36943
G1 X142.085 Y122.356 E7.59026
G1 X142.016 Y122.502 E7.59531
G1 X141.896 Y122.545 E7.5993
G1 X90.854 Y122.545 E9.19971
G1 X90.711 Y122.48 E9.2046
G1 X90.665 Y122.356 E9.20875
G1 X90.665 Y115.374 E9.4277
G1 X90.569 Y115.222 F9000
G1 E7.4277 F2400
G92 E0
G1 X108.31 Y93.228 F9000
G1 E2 F2400
;TYPE:Perimeter
G1 F1200
G1 X108.359 Y93.04 E2.0061
G1 X108.549 Y92.837 E2.01485
G1 X108.808 Y92.75 E2.02339
G1 X135.896 Y92.748 E2.87274
G1 X136.349 Y92.974 E2.8886
G1 X136.462 Y93.314 E2.89981
G1 X136.462 Y111.356 E3.46554
G1 X136.396 Y111.623 E3.47414
G1 X136.287 Y111.766 E3.47979
G1 X135.994 Y111.914 E3.49005
G1 X135.896 Y111.922 E3.49313
G1 X108.854 Y111.922 E4.34104
G1 X108.636 Y111.879 E4.348
G1 X108.463 Y111.766 E4.35445
G1 X108.302 Y111.481 E4.36474
G1 X108.288 Y111.356 E4.36866
G1 X108.295 Y93.286 E4.93523
G1 X108.665 Y93.314 F9000
;TYPE:External perimeter
G1 F1200
G1 X108.729 Y93.172 E4.9401
G1 X108.854 Y93.125 E4.94428
G1 X135.896 Y93.125 E5.79219
G1 X136.047 Y93.2 E5.79747
G1 X136.085 Y93.314 E5.80121
G1 X136.085 Y111.356 E6.36693
G1 X136.026 Y111.493 E6.37159
G1 X135.896 Y111.545 E6.37598
G1 X108.854 Y111.545 E7.22389
G1 X108.724 Y111.493 E7.22828
G1 X108.665 Y111.356 E7.23294
G1 X108.665 Y93.374 E7.79678
G1 X108.557 Y93.202 F9000
G1 E5.79678 F2400
G92 E0
G1 X90.171 Y55.355 F9000
G1 E2 F2400
;TYPE:Perimeter
G1 F1200
G1 X90.236 Y54.455 E2.02831
G1 X90.452 Y53.523 E2.0583
G1 X90.812 Y52.637 E2.08828
G1 X91.305 Y51.818 E2.11826
G1 X91.921 Y51.086 E2.14824
G1 X92.644 Y50.46 E2.17823
G1 X93.455 Y49.954 E2.20821
G1 X94.336 Y49.582 E2.23819
G1 X95.264 Y49.352 E2.26818
G1 X96.16 Y49.275 E2.29635
G1 X97.165 Y49.338 E2.32795
G1 X98.102 Y49.555 E2.35811
G1 X98.989 Y49.914 E2.38809
G1 X99.808 Y50.408 E2.41807
G1 X100.539 Y51.024 E2.44805
G1 X101.166 Y51.746 E2.47804
G1 X101.671 Y52.558 E2.50802
G1 X102.043 Y53.439 E2.538
G1 X102.273 Y54.367 E2.56799
G1 X102.355 Y55.408 E2.60074
G1 X102.287 Y56.273 E2.62795
G1 X102.071 Y57.205 E2.65793
G1 X101.711 Y58.091 E2.68792
G1 X101.218 Y58.91 E2.7179
G1 X100.602 Y59.642 E2.74788
G1 X99.879 Y60.268 E2.77787
G1 X99.009 Y60.805 E2.80992
G1 X98.187 Y61.146 E2.83784
G1 X97.259 Y61.376 E2.86782
G1 X96.306 Y61.458 E2.8978
G1 X95.352 Y61.39 E2.92779
G1 X94.421 Y61.173 E2.95777
G1 X93.534 Y60.814 E2.98775
G1 X92.716 Y60.32 E3.01774
G1 X91.984 Y59.704 E3.04772
G1 X91.358 Y58.982 E3.0777
G1 X90.852 Y58.17 E3.10769
G1 X90.48 Y57.289 E3.13767
G1 X90.25 Y56.361 E3.16765
G1 X90.168 Y55.415 E3.19743
G1 X90.544 Y55.379 F9000
;TYPE:External perimeter
G1 F1200
G1 X90.612 Y54.484 E3.22557
G1 X90.819 Y53.611 E3.2537
G1 X91.16 Y52.781 E3.28184
G1 X91.627 Y52.015 E3.30997
G1 X92.208 Y51.331 E3.3381
G1 X92.889 Y50.747 E3.36624
G1 X93.652 Y50.276 E3.39437
G1 X94.48 Y49.93 E3.4225
G1 X95.352 Y49.719 E3.45063
G1 X96.189 Y49.651 E3.47696
G1 X97.139 Y49.714 E3.50682
G1 X98.014 Y49.921 E3.53501
G1 X98.844 Y50.263 E3.56315
G1 X99.61 Y50.729 E3.59128
G1 X100.294 Y51.31 E3.61941
G1 X100.879 Y51.991 E3.64754
G1 X101.35 Y52.755 E3.67568
G1 X101.695 Y53.583 E3.70381
G1 X101.907 Y54.455 E3.73194
G1 X101.979 Y55.379 E3.761
G1 X101.911 Y56.244 E3.78821
G1 X101.704 Y57.117 E3.81634
G1 X101.363 Y57.947 E3.84447
G1 X100.896 Y58.713 E3.87261
G1 X100.315 Y59.397 E3.90074
G1 X99.634 Y59.981 E3.92887
G1 X98.851 Y60.462 E3.9577
G1 X98.043 Y60.798 E3.98514
G1 X97.171 Y61.009 E4.01327
G1 X96.276 Y61.082 E4.04141
G1 X95.382 Y61.014 E4.06954
G1 X94.509 Y60.807 E4.09767
G1 X93.679 Y60.465 E4.1258
G1 X92.913 Y59.999 E4.15394
G1 X92.229 Y59.418 E4.18207
G1 X91.644 Y58.737 E4.2102
G1 X91.173 Y57.973 E4.23834
G1 X90.828 Y57.145 E4.26647
G1 X90.616 Y56.273 E4.2946
G1 X90.548 Y55.439 E4.32084
G1 X90.197 Y55.18 F9000
G1 E2.32084 F2400
G92 E0
G1 X214.319 Y92.035 F9000
G1 E2 F2400
;TYPE:Solid infill
;WIDTH:0.420133
G1 F1200
G1 X214.755 Y92.471 E2.01935
G1 X214.755 Y93.005 E2.03608
G1 X213.955 Y92.205 E2.07156
G1 X213.422 Y92.205 E2.08829
G1 X214.755 Y93.538 E2.14744
G1 X214.755 Y94.072 E2.16417
G1 X212.888 Y92.205 E2.24698
G1 X212.355 Y92.205 E2.26371
G1 X214.755 Y94.605 E2.37018
G1 X214.755 Y95.139 E2.38691
G1 X211.821 Y92.205 E2.51705
G1 X211.288 Y92.205 E2.53378
G1 X214.755 Y95.672 E2.68758
G1 X214.755 Y96.206 E2.70431
G1 X210.754 Y92.205 E2.88177
G1 X210.221 Y92.205 E2.8985
G1 X214.755 Y96.739 E3.09962
G1 X214.755 Y97.272 E3.11635
G1 X209.688 Y92.205 E3.34114
G1 X209.154 Y92.205 E3.35787
G1 X214.755 Y97.806 E3.60632
G1 X214.755 Y98.339 E3.62305
G1 X208.621 Y92.205 E3.89516
G1 X208.087 Y92.205 E3.91189
G1 X214.755 Y98.873 E4.20767
G1 X214.755 Y99.406 E4.2244
G1 X207.554 Y92.205 E4.54384
G1 X207.02 Y92.205 E4.56057
G1 X214.755 Y99.94 E4.90367
G1 X214.755 Y100.473 E4.9204
G1 X206.487 Y92.205 E5.28716
G1 X205.953 Y92.205 E5.3039
G1 X214.755 Y101.007 E5.69432
G1 X214.755 Y101.54 E5.71105
G1 X205.42 Y92.205 E6.12514
G1 X204.886 Y92.205 E6.14187
G1 X214.755 Y102.074 E6.57962
G1 X214.755 Y102.607 E6.59636
G1 X204.353 Y92.205 E7.05777
G1 X203.819 Y92.205 E7.0745
G1 X214.755 Y103.141 E7.55958
G1 X214.755 Y103.674 E7.57631
G1 X203.286 Y92.205 E8.08505
G1 X202.753 Y92.205 E8.10178
G1 X214.755 Y104.207 E8.63419
G1 X214.755 Y104.741 E8.65092
G1 X202.219 Y92.205 E9.20698
G1 X201.686 Y92.205 E9.22371
G1 X214.755 Y105.274 E9.80344
G1 X214.755 Y105.808 E9.82017
G1 X201.152 Y92.205 E10.42357
G1 X200.619 Y92.205 E10.4403
G1 X214.755 Y106.341 E11.06735
G1 X214.755 Y106.875 E11.08408
G1 X200.085 Y92.205 E11.7348
G1 X199.552 Y92.205 E11.75153
G1 X214.755 Y107.408 E12.42591
G1 X214.755 Y107.942 E12.44264
G1 X199.018 Y92.205 E13.14069
G1 X198.485 Y92.205 E13.15742
G1 X214.755 Y108.475 E13.87912
G1 X214.755 Y109.009 E13.89586
G1 X197.951 Y92.205 E14.64123
G1 X197.418 Y92.205 E14.65796
G1 X214.755 Y109.542 E15.42699
G1 X214.755 Y110.076 E15.44372
G1 X196.884 Y92.205 E16.23641
G1 X196.351 Y92.205 E16.25315
G1 X214.755 Y110.609 E17.0695
G1 X214.755 Y111.142 E17.08624
G1 X195.818 Y92.205 E17.92626
G1 X195.284 Y92.205 E17.94299
G1 X214.755 Y111.676 E18.80667
G1 X214.755 Y112.209 E18.8234
G1 X194.751 Y92.205 E19.71075
G1 X194.217 Y92.205 E19.72748
G1 X214.755 Y112.743 E20.63849
G1 X214.755 Y113.276 E20.65522
G1 X193.684 Y92.205 E21.58989
G1 X193.15 Y92.205 E21.60662
G1 X214.755 Y113.81 E22.56496
G1 X214.755 Y114.343 E22.58169
G1 X192.617 Y92.205 E23.56369
G1 X192.083 Y92.205 E23.58042
G1 X214.755 Y114.877 E24.58608
G1 X214.755 Y115.41 E24.60281
G1 X191.55 Y92.205 E25.63213
G1 X191.016 Y92.205 E25.64887
G1 X214.755 Y115.944 E26.70185
G1 X214.755 Y116.477 E26.71858
G1 X190.483 Y92.205 E27.79523
G1 X189.95 Y92.205 E27.81196
G1 X214.755 Y117.01 E28.91227
G1 X214.755 Y117.544 E28.92901
G1 X189.416 Y92.205 E30.05298
G1 X188.883 Y92.205 E30.06971
G1 X214.755 Y118.077 E31.21735
G1 X214.755 Y118.611 E31.23408
G1 X188.349 Y92.205 E32.40538
G1 X187.816 Y92.205 E32.42211
G1 X214.755 Y119.144 E33.61708
G1 X214.755 Y119.678 E33.63381
G1 X187.282 Y92.205 E34.85243
G1 X186.749 Y92.205 E34.86917
G1 X214.755 Y120.211 E36.11145
G1 X214.755 Y120.745 E36.12819
G1 X186.215 Y92.205 E37.39414
G1 X185.682 Y92.205 E37.41087
G1 X214.755 Y121.278 E38.70048
G1 X214.755 Y121.812 E38.71722
G1 X185.148 Y92.205 E40.03049
G1 X184.615 Y92.205 E40.04723
G1 X214.755 Y122.345 E41.38417
G1 X214.755 Y122.879 E41.4009
G1 X184.081 Y92.205 E42.7615
G1 X183.548 Y92.205 E42.77823
G1 X214.755 Y123.412 E44.1625
G1 X214.755 Y123.945 E44.17923
G1 X183.015 Y92.205 E45.58716
G1 X182.481 Y92.205 E45.60389
G1 X214.755 Y124.479 E47.03548
G1 X214.755 Y125.012 E47.05221
G1 X181.948 Y92.205 E48.50747
G1 X181.414 Y92.205 E48.5242
G1 X214.755 Y125.546 E50.00312
G1 X214.755 Y126.079 E50.01985
G1 X180.881 Y92.205 E51.52243
G1 X180.347 Y92.205 E51.53916
G1 X214.755 Y126.613 E53.06541
G1 X214.755 Y127.146 E53.08214
G1 X179.814 Y92.205 E54.63204
G1 X179.28 Y92.205 E54.64878
G1 X214.755 Y127.68 E56.22234
G1 X214.755 Y128.213 E56.23908
G1 X178.747 Y92.205 E57.83631
G1 X178.213 Y92.205 E57.85304
G1 X214.755 Y128.747 E59.47393
G1 X214.755 Y129.28 E59.49067
G1 X177.68 Y92.205 E61.13522
